X:119
T:Colonel Belches Favorite Strathspey
S:Anderson's Pocket Companion, Perth 1807 (Glen.42) p50
M:4/4
L:1/8
Q:1/4=120
K:A Minor
e/>d/|c>BA>B c>d (ed/c/)     |.B.G.d.G        .e.G.d.G|\
      c>BA>B c>d (f/e/)(d/c/)| B>G d3/(c//B//) BAA   :|
e    |a>bc'a (ea).A.a|g>a  a/g/f/e/     d/c/B/A/    G>e|a>bc'a egac' | b>ge>g                 Ta2A
e    |a>bc'a  eeae   |g>a (g/e/)(d/c/) (B/c/)(d/c/) BG |c>Ad>B e>cf>d|(e/c/B/A/) (^G/e/)(B/d/) cAA|]

